src/images/footer/facebook.svg

<svg width="29" height="28" viewBox="0 0 29 28" fill="none" xmlns="http://www.w3.org/2000/svg">
<g clip-path="url(#clip0)">
<path d="M28.0625 14C28.0625 6.50781 21.9922 0.4375 14.5 0.4375C7.00781 0.4375 0.9375 6.50781 0.9375 14C0.9375 20.7692 5.89711 26.3802 12.3809 27.3984V17.9205H8.93555V14H12.3809V11.0119C12.3809 7.61305 14.4043 5.73562 17.5034 5.73562C18.9877 5.73562 20.5397 6.00031 20.5397 6.00031V9.33625H18.8291C17.1447 9.33625 16.6191 10.3819 16.6191 11.4543V14H20.3805L19.779 17.9205H16.6191V27.3984C23.1029 26.3802 28.0625 20.7692 28.0625 14Z" fill="#52525B"/>
</g>
<defs>
<clipPath id="clip0">
<rect x="0.5" width="28" height="28" fill="white"/>
</clipPath>
</defs>
</svg>

<svg width="29" height="28" fill="none" xmlns="http://www.w3.org/2000/svg"><g clip-path="url(#clip0)"><path d="M28.063 14C28.063 6.508 21.992.437 14.5.437 7.008.438.937 6.508.937 14c0 6.77 4.96 12.38 11.444 13.398v-9.477H8.936V14h3.445v-2.988c0-3.399 2.023-5.276 5.122-5.276 1.485 0 3.037.264 3.037.264v3.336h-1.71c-1.685 0-2.21 1.046-2.21 2.118V14h3.76l-.601 3.92h-3.16v9.478C23.103 26.38 28.063 20.77 28.063 14z" fill="#52525B"/></g><defs><clipPath id="clip0"><path fill="#fff" d="M.5 0h28v28H.5z"/></clipPath></defs></svg>
